icons/lines/wallet-three.svg

<svg xmlns="http://www.w3.org/2000/svg" width="24" height="24" viewBox="0 0 24 24" fill="none" stroke="currentColor" stroke-width="2" stroke-linecap="round" stroke-linejoin="round" >
  <path d="M13 11.15H7"/>
  <path d="M2 11.15V6.53003C2 4.49003 3.65 2.84003 5.69 2.84003H11.31C13.35 2.84003 15 4.11002 15 6.15002"/>
  <path d="M17.48 12.2C16.98 12.68 16.74 13.42 16.94 14.18C17.19 15.11 18.11 15.7 19.07 15.7H20V17.15C20 19.36 18.21 21.15 16 21.15H6C3.79 21.15 2 19.36 2 17.15V10.15C2 7.94002 3.79 6.15002 6 6.15002H16C18.2 6.15002 20 7.95002 20 10.15V11.6H18.92C18.36 11.6 17.85 11.82 17.48 12.2Z"/>
  <path d="M22.0002 12.62V14.68C22.0002 15.24 21.5402 15.7 20.9702 15.7H19.0402C17.9602 15.7 16.9702 14.91 16.8802 13.83C16.8202 13.2 17.0602 12.61 17.4802 12.2C17.8502 11.82 18.3602 11.6 18.9202 11.6H20.9702C21.5402 11.6 22.0002 12.06 22.0002 12.62Z"/>
  </svg>

<svg xmlns="http://www.w3.org/2000/svg" width="24" height="24" viewBox="0 0 24 24" fill="none" stroke="currentColor" stroke-width="2" stroke-linecap="round" stroke-linejoin="round">
  <path d="M13 11.15H7" />
  <path d="M15 6.15c0-2.04-1.65-3.31-3.69-3.31H5.69A3.687 3.687 0 0 0 2 6.53v10.62a4 4 0 0 0 4 4h10a4 4 0 0 0 4-4V15.7" />
  <path d="M18.92 11.6a2 2 0 0 0-1.98 2.58c.25.93 1.17 1.52 2.13 1.52" />
  <path d="M19.04 15.7c-1.08 0-2.07-.79-2.16-1.87a2 2 0 0 1 2.04-2.23h2.05A1 1 0 0 1 22 12.62v2.06a1 1 0 0 1-1.03 1.02z" />
  <path d="M2 10.15a4 4 0 0 1 4-4h10a4 4 0 0 1 4 4v1.45" />
</svg>
